images/favicon/favicon.svg

<svg width="94" height="24" viewBox="0 0 94 24" fill="none" xmlns="http://www.w3.org/2000/svg">
<path d="M30.8092 4.06199C33.0883 3.49375 34.9757 3.72107 36.4714 4.74368C37.967 5.76623 39.0397 7.58129 39.69 10.1893C40.342 12.804 40.2481 14.9284 39.4077 16.5611C38.572 18.1855 37.0175 19.2807 34.7449 19.8473C32.4786 20.4123 30.5951 20.1745 29.0945 19.1325C28.5351 18.7419 28.0351 18.2422 27.5939 17.6342C27.3681 17.3231 27.4755 16.8929 27.8034 16.6923L29.843 15.4449C30.1744 15.2422 30.6075 15.3485 30.8073 15.6816L32.1855 17.9783C32.3714 18.2911 32.6269 18.5179 32.9517 18.6579C33.2765 18.7978 33.598 18.8142 33.9152 18.7075C34.2386 18.5992 34.4821 18.3727 34.6456 18.0282L38.1971 10.3653C38.425 9.87317 38.4451 9.43958 38.2573 9.06498C38.0743 8.68232 37.7236 8.45532 37.2069 8.38384L29.0613 7.19206C28.4936 7.10565 28.0165 7.18268 27.6316 7.42375C27.2532 7.66315 27.0391 8.00704 26.9888 8.45459C26.9449 8.90075 27.085 9.4223 27.4089 10.0185L28.7692 12.2859C28.9667 12.6151 28.8618 13.042 28.5343 13.2422L26.9213 14.2279C26.5352 14.4639 26.0298 14.2762 25.915 13.8385C25.8974 13.7717 25.8802 13.7045 25.8633 13.6367C25.2132 11.0288 25.3052 8.92317 26.1392 7.31977C26.9798 5.71471 28.5365 4.62868 30.8092 4.06199Z" fill="#2161AB"/>
<g clip-path="url(#clip0_3_19695)">
<path d="M21.5382 3.88489C21.8394 3.88489 22.0837 4.1291 22.0837 4.43034V19.636C22.0837 19.9372 21.8394 20.1815 21.5382 20.1815H19.1457C18.8445 20.1815 18.6003 19.9372 18.6003 19.636V11.1596C18.6003 10.6491 17.9571 10.4141 17.6235 10.8006C16.9611 11.568 16.1663 12.4677 15.2391 13.4999C14.3705 14.476 13.7438 15.1825 13.3589 15.6195C13.1295 15.88 12.7041 15.8799 12.4737 15.6202C12.0897 15.1873 11.4633 14.4873 10.5946 13.5203C9.67883 12.4911 8.8919 11.5908 8.23379 10.8193C7.90125 10.4295 7.25377 10.6636 7.25377 11.176V19.636C7.25377 19.9372 7.00956 20.1815 6.70831 20.1815H4.29545C3.99421 20.1815 3.75 19.9372 3.75 19.636V4.43034C3.75 4.1291 3.99421 3.88489 4.29545 3.88489H7.00205C7.16177 3.88489 7.31346 3.95489 7.41709 4.07642L12.5025 10.0399C12.72 10.295 13.114 10.2954 13.332 10.0407L18.437 4.07568C18.5406 3.95459 18.692 3.88489 18.8514 3.88489H21.5382ZM55.492 4.20038C55.5814 4.00796 55.7744 3.88489 55.9866 3.88489H59.1234C59.5219 3.88489 59.7859 4.29831 59.6183 4.65982L52.5666 19.8655C52.4773 20.0582 52.2842 20.1815 52.0718 20.1815H48.9383C48.7261 20.1815 48.5332 20.0584 48.4437 19.866L41.3731 4.66033C41.205 4.29877 41.4689 3.88489 41.8677 3.88489H45.0239C45.2361 3.88489 45.4291 4.00796 45.5185 4.20038L50.0107 13.862C50.2062 14.2827 50.8043 14.2827 50.9999 13.862L55.492 4.20038ZM74.664 16.6777C74.9652 16.6777 75.2095 16.9219 75.2095 17.2231V19.636C75.2095 19.9372 74.9652 20.1815 74.664 20.1815H62.1676C61.8664 20.1815 61.6222 19.9372 61.6222 19.636V4.43034C61.6222 4.1291 61.8664 3.88489 62.1676 3.88489H64.5802C64.8814 3.88489 65.1256 4.1291 65.1256 4.43034V16.1322C65.1256 16.4335 65.3698 16.6777 65.6711 16.6777H74.664ZM84.6919 4.11831C84.7939 3.97205 84.961 3.88489 85.1393 3.88489H88.3292C88.7744 3.88489 89.0321 4.38947 88.7711 4.75014L82.3505 13.6215C82.2832 13.7146 82.2469 13.8265 82.2469 13.9413V19.636C82.2469 19.9372 82.0027 20.1815 81.7015 20.1815H79.0647C78.7635 20.1815 78.5193 19.9372 78.5193 19.636V13.9409C78.5193 13.8263 78.4832 13.7147 78.4161 13.6217L72.0136 4.74953C71.7533 4.38878 72.011 3.88489 72.4559 3.88489H75.6476C75.8259 3.88489 75.993 3.97205 76.095 4.11831L79.9461 9.63985C80.1631 9.95107 80.6238 9.95107 80.8408 9.63985L84.6919 4.11831Z" fill="#2F2F31"/>
</g>
<defs>
<clipPath id="clip0_3_19695">
<rect width="86.1818" height="16.9091" fill="white" transform="translate(3.75 3.4978)"/>
</clipPath>
</defs>
</svg>

<svg width="94" height="24" fill="none" xmlns="http://www.w3.org/2000/svg"><path d="M30.81 4.062c2.278-.568 4.166-.34 5.661.682 1.496 1.022 2.569 2.837 3.219 5.445.652 2.615.558 4.74-.282 6.372-.836 1.625-2.39 2.72-4.663 3.286-2.266.565-4.15.327-5.65-.715a6.33 6.33 0 01-1.501-1.498c-.226-.31-.119-.741.21-.942l2.039-1.247a.7.7 0 01.964.237l1.378 2.296c.186.313.442.54.767.68s.646.156.963.05c.324-.109.567-.335.73-.68l3.552-7.663c.228-.492.248-.925.06-1.3-.183-.383-.533-.61-1.05-.681L29.06 7.192c-.567-.086-1.044-.01-1.43.232-.378.24-.592.583-.642 1.03-.044.447.096.968.42 1.564l1.36 2.268a.7.7 0 01-.235.956l-1.613.986a.67.67 0 01-1.006-.39 15.617 15.617 0 01-.052-.201c-.65-2.608-.558-4.714.276-6.317.84-1.605 2.398-2.691 4.67-3.258z" fill="#2161AB"/><g clip-path="url(#clip0_3_19695)"><path d="M21.538 3.885c.301 0 .546.244.546.545v15.206a.546.546 0 01-.546.546h-2.392a.546.546 0 01-.546-.546V11.16c0-.51-.643-.746-.977-.36a185.63 185.63 0 01-2.384 2.7 627.71 627.71 0 00-1.88 2.12.6.6 0 01-.885 0c-.384-.433-1.01-1.133-1.88-2.1a184.888 184.888 0 01-2.36-2.7c-.333-.39-.98-.156-.98.356v8.46a.546.546 0 01-.546.546H4.295a.546.546 0 01-.545-.546V4.43c0-.3.244-.545.545-.545h2.707c.16 0 .311.07.415.191l5.085 5.964a.545.545 0 00.83 0l5.105-5.964a.545.545 0 01.414-.191h2.687zm33.954.315a.545.545 0 01.495-.315h3.136c.399 0 .663.413.495.775l-7.051 15.206a.545.545 0 01-.495.316h-3.134a.546.546 0 01-.494-.316L41.374 4.66a.545.545 0 01.494-.775h3.156c.212 0 .405.123.495.315l4.492 9.662c.195.42.793.42.989 0L55.492 4.2zm19.172 12.478c.301 0 .546.244.546.545v2.413a.546.546 0 01-.546.546H62.168a.546.546 0 01-.546-.546V4.43c0-.3.244-.545.546-.545h2.412c.301 0 .546.244.546.545v11.702c0 .301.244.546.545.546h8.993zm10.028-12.56a.545.545 0 01.447-.233h3.19c.445 0 .703.504.442.865l-6.42 8.871a.546.546 0 00-.104.32v5.695a.546.546 0 01-.546.546h-2.636a.546.546 0 01-.546-.546v-5.695a.545.545 0 00-.103-.32L72.014 4.75a.545.545 0 01.442-.865h3.192c.178 0 .345.087.447.233l3.851 5.522a.545.545 0 00.895 0l3.85-5.522z" fill="#2F2F31"/></g><defs><clipPath id="clip0_3_19695"><path fill="#fff" transform="translate(3.75 3.498)" d="M0 0h86.182v16.909H0z"/></clipPath></defs></svg>
